icons/network.svg

<svg xmlns="http://www.w3.org/2000/svg" width="96" height="96"><path d="M32 52h32v8h-4c-2.1 0-4.2.8-5.7 2.3-1.5 1.5-2.3 3.6-2.3 5.7v16c0 2.1.8 4.2 2.3 5.7 1.5 1.5 3.6 2.3 5.7 2.3h16c2.1 0 4.2-.8 5.7-2.3 1.5-1.5 2.3-3.6 2.3-5.7V68c0-2.1-.8-4.2-2.3-5.7-1.5-1.5-3.6-2.3-5.7-2.3h-4v-8h16c1.1 0 2.1-.4 2.8-1.2.8-.7 1.2-1.7 1.2-2.8 0-1.1-.4-2.1-1.2-2.8-.7-.8-1.7-1.2-2.8-1.2H52v-8h4c2.1 0 4.2-.8 5.7-2.3 1.5-1.5 2.3-3.6 2.3-5.7V12c0-2.1-.8-4.2-2.3-5.7C60.2 4.8 58.1 4 56 4H40c-2.1 0-4.2.8-5.7 2.3C32.8 7.8 32 9.9 32 12v16c0 2.1.8 4.2 2.3 5.7 1.5 1.5 3.6 2.3 5.7 2.3h4v8H8c-1.1 0-2.1.4-2.8 1.2-.8.7-1.2 1.7-1.2 2.8 0 1.1.4 2.1 1.2 2.8.7.8 1.7 1.2 2.8 1.2h16v8h-4c-2.1 0-4.2.8-5.7 2.3-1.5 1.5-2.3 3.6-2.3 5.7v16c0 2.1.8 4.2 2.3 5.7 1.5 1.5 3.6 2.3 5.7 2.3h16c2.1 0 4.2-.8 5.7-2.3 1.5-1.5 2.3-3.6 2.3-5.7V68c0-2.1-.8-4.2-2.3-5.7-1.5-1.5-3.6-2.3-5.7-2.3h-4v-8zm28 32h16V68H60v16zM40 12v16h16V12H40zM20 84h16V68H20v16z" fill-rule="evenodd" fill="#454545"/></svg>

<?xml version="1.0" standalone="no"?><!-- Generator: Gravit.io --><svg xmlns="http://www.w3.org/2000/svg" xmlns:xlink="http://www.w3.org/1999/xlink" width="96" height="96"><path d=" M 32 52 L 64 52 L 64 52 L 64 60 L 60 60 C 57.9 60 55.8 60.8 54.3 62.3 C 52.8 63.8 52 65.9 52 68 L 52 84 C 52 86.1 52.8 88.2 54.3 89.7 C 55.8 91.2 57.9 92 60 92 L 76 92 C 78.1 92 80.2 91.2 81.7 89.7 C 83.2 88.2 84 86.1 84 84 L 84 68 C 84 65.9 83.2 63.8 81.7 62.3 C 80.2 60.8 78.1 60 76 60 L 72 60 L 72 52 L 88 52 C 89.1 52 90.1 51.6 90.8 50.8 C 91.6 50.1 92 49.1 92 48 C 92 46.9 91.6 45.9 90.8 45.2 C 90.1 44.4 89.1 44 88 44 L 52 44 L 52 36 L 56 36 C 58.1 36 60.2 35.2 61.7 33.7 C 63.2 32.2 64 30.1 64 28 L 64 12 C 64 9.9 63.2 7.8 61.7 6.3 C 60.2 4.8 58.1 4 56 4 L 40 4 C 37.9 4 35.8 4.8 34.3 6.3 C 32.8 7.8 32 9.9 32 12 L 32 28 C 32 30.1 32.8 32.2 34.3 33.7 C 35.8 35.2 37.9 36 40 36 L 44 36 L 44 44 L 8 44 C 6.9 44 5.9 44.4 5.2 45.2 C 4.4 45.9 4 46.9 4 48 C 4 49.1 4.4 50.1 5.2 50.8 C 5.9 51.6 6.9 52 8 52 L 24 52 L 24 60 L 20 60 C 17.9 60 15.799999999999997 60.8 14.3 62.3 C 12.799999999999997 63.8 12 65.9 12 68 L 12 84 C 12 86.1 12.799999999999997 88.2 14.3 89.7 C 15.799999999999997 91.2 17.9 92 20 92 L 36 92 C 38.1 92 40.2 91.2 41.7 89.7 C 43.2 88.2 44 86.1 44 84 L 44 68 C 44 65.9 43.2 63.8 41.7 62.3 C 40.2 60.8 38.1 60 36 60 L 32 60 L 32 60 L 32 52 Z  M 60 84 L 76 84 L 76 68 L 68 68 L 60 68 L 60 84 L 60 84 Z  M 40 12 L 40 28 L 48 28 L 56 28 L 56 12 L 40 12 L 40 12 Z  M 20 84 L 36 84 L 36 68 L 28 68 L 20 68 L 20 84 L 20 84 Z " fill-rule="evenodd" fill="#454545" stroke="none"/><mask id="_mask_pAfQx6j3zednQCP10tcqU6O8U9A5KOzt"><path d=" M 32 52 L 64 52 L 64 52 L 64 60 L 60 60 C 57.9 60 55.8 60.8 54.3 62.3 C 52.8 63.8 52 65.9 52 68 L 52 84 C 52 86.1 52.8 88.2 54.3 89.7 C 55.8 91.2 57.9 92 60 92 L 76 92 C 78.1 92 80.2 91.2 81.7 89.7 C 83.2 88.2 84 86.1 84 84 L 84 68 C 84 65.9 83.2 63.8 81.7 62.3 C 80.2 60.8 78.1 60 76 60 L 72 60 L 72 52 L 88 52 C 89.1 52 90.1 51.6 90.8 50.8 C 91.6 50.1 92 49.1 92 48 C 92 46.9 91.6 45.9 90.8 45.2 C 90.1 44.4 89.1 44 88 44 L 52 44 L 52 36 L 56 36 C 58.1 36 60.2 35.2 61.7 33.7 C 63.2 32.2 64 30.1 64 28 L 64 12 C 64 9.9 63.2 7.8 61.7 6.3 C 60.2 4.8 58.1 4 56 4 L 40 4 C 37.9 4 35.8 4.8 34.3 6.3 C 32.8 7.8 32 9.9 32 12 L 32 28 C 32 30.1 32.8 32.2 34.3 33.7 C 35.8 35.2 37.9 36 40 36 L 44 36 L 44 44 L 8 44 C 6.9 44 5.9 44.4 5.2 45.2 C 4.4 45.9 4 46.9 4 48 C 4 49.1 4.4 50.1 5.2 50.8 C 5.9 51.6 6.9 52 8 52 L 24 52 L 24 60 L 20 60 C 17.9 60 15.799999999999997 60.8 14.3 62.3 C 12.799999999999997 63.8 12 65.9 12 68 L 12 84 C 12 86.1 12.799999999999997 88.2 14.3 89.7 C 15.799999999999997 91.2 17.9 92 20 92 L 36 92 C 38.1 92 40.2 91.2 41.7 89.7 C 43.2 88.2 44 86.1 44 84 L 44 68 C 44 65.9 43.2 63.8 41.7 62.3 C 40.2 60.8 38.1 60 36 60 L 32 60 L 32 60 L 32 52 Z  M 60 84 L 76 84 L 76 68 L 68 68 L 60 68 L 60 84 L 60 84 Z  M 40 12 L 40 28 L 48 28 L 56 28 L 56 12 L 40 12 L 40 12 Z  M 20 84 L 36 84 L 36 68 L 28 68 L 20 68 L 20 84 L 20 84 Z " fill-rule="evenodd" fill="white" stroke="none"/></mask><path d=" M 32 52 L 64 52 L 64 52 L 64 60 L 60 60 C 57.9 60 55.8 60.8 54.3 62.3 C 52.8 63.8 52 65.9 52 68 L 52 84 C 52 86.1 52.8 88.2 54.3 89.7 C 55.8 91.2 57.9 92 60 92 L 76 92 C 78.1 92 80.2 91.2 81.7 89.7 C 83.2 88.2 84 86.1 84 84 L 84 68 C 84 65.9 83.2 63.8 81.7 62.3 C 80.2 60.8 78.1 60 76 60 L 72 60 L 72 52 L 88 52 C 89.1 52 90.1 51.6 90.8 50.8 C 91.6 50.1 92 49.1 92 48 C 92 46.9 91.6 45.9 90.8 45.2 C 90.1 44.4 89.1 44 88 44 L 52 44 L 52 36 L 56 36 C 58.1 36 60.2 35.2 61.7 33.7 C 63.2 32.2 64 30.1 64 28 L 64 12 C 64 9.9 63.2 7.8 61.7 6.3 C 60.2 4.8 58.1 4 56 4 L 40 4 C 37.9 4 35.8 4.8 34.3 6.3 C 32.8 7.8 32 9.9 32 12 L 32 28 C 32 30.1 32.8 32.2 34.3 33.7 C 35.8 35.2 37.9 36 40 36 L 44 36 L 44 44 L 8 44 C 6.9 44 5.9 44.4 5.2 45.2 C 4.4 45.9 4 46.9 4 48 C 4 49.1 4.4 50.1 5.2 50.8 C 5.9 51.6 6.9 52 8 52 L 24 52 L 24 60 L 20 60 C 17.9 60 15.799999999999997 60.8 14.3 62.3 C 12.799999999999997 63.8 12 65.9 12 68 L 12 84 C 12 86.1 12.799999999999997 88.2 14.3 89.7 C 15.799999999999997 91.2 17.9 92 20 92 L 36 92 C 38.1 92 40.2 91.2 41.7 89.7 C 43.2 88.2 44 86.1 44 84 L 44 68 C 44 65.9 43.2 63.8 41.7 62.3 C 40.2 60.8 38.1 60 36 60 L 32 60 L 32 60 L 32 52 Z  M 60 84 L 76 84 L 76 68 L 68 68 L 60 68 L 60 84 L 60 84 Z  M 40 12 L 40 28 L 48 28 L 56 28 L 56 12 L 40 12 L 40 12 Z  M 20 84 L 36 84 L 36 68 L 28 68 L 20 68 L 20 84 L 20 84 Z " fill-rule="evenodd" fill="none" stroke="none" stroke-width="16" mask="url(#_mask_pAfQx6j3zednQCP10tcqU6O8U9A5KOzt)"/></svg>
